icons/glyphs/glyph-terminal.svg

<?xml version="1.0" encoding="UTF-8" standalone="no"?><svg height="22" viewBox="0 0 22 22" width="22" xmlns="http://www.w3.org/2000/svg"><sodipodi:namedview/><metadata><rdf:RDF><cc:Work><dc:format>image/svg+xml</dc:format><dc:type/><dc:title/></cc:Work></rdf:RDF></metadata><path d="m0 1.8195312v2.2988282h2.2773438v2.2324218h2.2988281v2.3222657h2.2773437v2.2539061h-2.2773437v2.300781h-2.2988281v2.230469h-2.2773438v2.322266h4.5761719v-2.322266h2.2773437v-2.230469h2.2558594v-2.300781h2.298828v-2.2539061h-2.298828v-2.3222657h-2.2558594v-2.2324218h-2.2773437v-2.2988282zm11.753906 16.4386718v2.322266h10.246094v-2.322266z" fill="#fff" stroke-width=".569281"/></svg>

<?xml version="1.0" encoding="UTF-8" standalone="no"?>
<!-- Created with Inkscape (http://www.inkscape.org/) -->

<svg
   xmlns:dc="http://purl.org/dc/elements/1.1/"
   xmlns:cc="http://creativecommons.org/ns#"
   xmlns:rdf="http://www.w3.org/1999/02/22-rdf-syntax-ns#"
   xmlns:svg="http://www.w3.org/2000/svg"
   xmlns="http://www.w3.org/2000/svg"
   xmlns:sodipodi="http://sodipodi.sourceforge.net/DTD/sodipodi-0.dtd"
   xmlns:inkscape="http://www.inkscape.org/namespaces/inkscape"
   width="22"
   height="22"
   viewBox="0 0 22 22"
   version="1.1"
   id="svg8"
   inkscape:version="0.92+devel 15658 custom"
   sodipodi:docname="glyph-terminal.svg">
  <defs
     id="defs2" />
  <sodipodi:namedview
     id="base"
     pagecolor="#002266"
     bordercolor="#ffffff"
     borderopacity="0.46666667"
     inkscape:pageopacity="0"
     inkscape:pageshadow="2"
     inkscape:zoom="13.081476"
     inkscape:cx="16.621911"
     inkscape:cy="12.794693"
     inkscape:document-units="px"
     inkscape:current-layer="svg8"
     inkscape:document-rotation="0"
     showgrid="false"
     inkscape:showpageshadow="false"
     borderlayer="true"
     units="px"
     fit-margin-top="0"
     fit-margin-left="0"
     fit-margin-right="0"
     fit-margin-bottom="0"
     inkscape:window-width="1920"
     inkscape:window-height="1051"
     inkscape:window-x="0"
     inkscape:window-y="0"
     inkscape:window-maximized="1" />
  <metadata
     id="metadata5">
    <rdf:RDF>
      <cc:Work
         rdf:about="">
        <dc:format>image/svg+xml</dc:format>
        <dc:type
           rdf:resource="http://purl.org/dc/dcmitype/StillImage" />
        <dc:title />
      </cc:Work>
    </rdf:RDF>
  </metadata>
  <path
     inkscape:connector-curvature="0"
     id="path4265"
     d="M 0,1.8195312 V 4.1183594 H 2.2773438 V 6.3507812 H 4.5761719 V 8.6730469 H 6.8535156 V 10.926953 H 4.5761719 v 2.300781 H 2.2773438 v 2.230469 H 0 v 2.322266 H 4.5761719 V 15.458203 H 6.8535156 V 13.227734 H 9.109375 v -2.300781 h 2.298828 V 8.6730469 H 9.109375 V 6.3507812 H 6.8535156 V 4.1183594 H 4.5761719 V 1.8195312 Z M 11.753906,18.258203 v 2.322266 H 22 v -2.322266 z"
     style="font-size:medium;font-family:Joystix;-inkscape-font-specification:Joystix;fill:#ffffff;stroke-width:0.56928086"
     inkscape:label="glyph"
     sodipodi:nodetypes="cccccccccccccccccccccccccccccccccc" />
</svg>
